X:631
T:Miss Forbes of Pitsligo
R:Strathspey
C:John Gow
B:The Athole Collection
M:C
L:1/8
K:F
F|C>FA>F c>FA>F|C>FA>f c/c/B/A/ G2|C>FA>d c>FA>a|
f>c d/c/B/A/ G2 F>A|C>FA>F c>FA>F|C>FA>f d/c/B/A/ G2|
C>FA>d c>FA>a|f>c d/c/B/A/ G2 F||c/4d/4e/|f>c f/e/d/c/ f<c c>a|
f<d c>A G<g g>a|f>c f/e/d/c/ f<c c>a|f>dc>A G2 F c/4d/4e/|
f>c f/e/d/c/ f<c ca/g/|f>dc>A G<g g>a|f>cd>b c<aB<g|A>f cB/A/ G2 G2||

